!!!COM: Schubert, Franz
!!!CNT: Deutscher
!!!TXO: Deutsch
!!!LYR: Johann Wolfgang von Goethe
!!!OTL: "Lied der Mignon"
!!!OPS: Op. 62
!!!ONM: No. 3
!!!ODT: 1826/
!!NB: Vocal melody only encoded.
!!NB: Original key: B major
**kern	**silbe
*staff1	*
*clefG2	*
*k[f#c#g#]	*
*M3/4	*
*MM[Nicht zu langsam]	*
=5	=5
4r	.
8r	.
{8a	{So
8a	lasst
8b	mich
=6	=6
4.g#	schei-
8a	-nen,
8b	bis
8cc#	ich
=7	=7
4b	wer-
8a}	-de;}
8r	.
8r	.
{8cc#	{zieht
=8	=8
8dd	mir
8cc#	das
8b	wei-
8a	-sse
8g#	Kleid
16a	nicht
16cc#	|
=9	=9
4b}	aus!}
8r	.
{8a	{ich
8a	ei-
8b	-le
=10	=10
4.g#	von
8a	der
8b	scho2-
8cc#	-nen
=11	=11
4b	Er-
8a	-de
8cc#	hin-
8b	-ab
8a	in
=12	=12
4.e	je-
8e	-nes
16d#	dun-
16e	|
16f#	-kle
16e	|
=13	=13
4.c#}	Haus.}
8r	.
4r	.
=14	=14
2.r	.
=15	=15
4r	.
8r	.
{8a	{Dort
8cc#	ruh'
8a	ich
=16	=16
4.g#	ei-
8f#	-ne
8.b	klei-
16a	-ne
=17	=17
4a	Stil-
8g#}	-le,}
{8e	{dann
8f#	o2ff-
8g#	-net
=18	=18
8a	sich
8b	der
4ccn	fri-
8.ee	|
16dd	-sche
=19	=19
4.ccn}	Blick;}
{8cc	{ich
8b	las-
8a	-se
=20	=20
4.g#	dann
8a	die
8ee	rei-
16dd	-ne
16ccn	|
=21	=21
4ccn	Hu2l-
8b	-le,
8cc#	den
8.ee	Gu2r-
16cc#	-tel
=22	=22
4.a	und
8a	den
8.cc#	Kranz
16b	zu-
=23	=23
4.a}	-ru2ck.}
8r	.
4r	.
=24	=24
2.r	.
=25	=25
4r	.
8r	.
{8a	{Und
8a	je-
8b	-ne
=26	=26
4.g#	himm-
8a	-li-
8b	-schen
8cc#	Ge-
=27	=27
4b	-stal-
8a}	-ten,}
8r	.
8r	.
{8cc#	{sie
=28	=28
8dd	fra-
8cc#	-gen
8b	nicht
8a	nach
8g#	Mann
16a	und
16cc#	|
=29	=29
4b}	Weib,}
8r	.
{8a	{und
8a	kei-
8b	-ne
=30	=30
4.g#	Klei-
8a	-der,
8b	kei-
8cc#	-ne
=31	=31
4b	Fal-
8a	-ten
8cc#	um-
8b	-ge-
8a	-ben
=32	=32
4.e	den
8e	ver-
16f#	-kla2r-
16e	|
16d#	-ten
16e	|
=33	=33
4.c#}	Leib.}
8r	.
4r	.
=34	=34
2.r	.
=35	=35
4r	.
8r	.
{8a	{Zwar
8cc#	lebt'
8a	ich
=36	=36
4.g#	oh-
8f#	-ne
8b	Sorg'
8a	und
=37	=37
4a	Mu2-
8g#}	-he,}
{8e	{doch
8f#	fu2llt'
8g#	ich
=38	=38
8a	tie-
8b	-fen
4ccn	Schmerz
8.ee-	|
16dd	ge-
=39	=39
4.ccn}	-nung.}
{8cc	{Vor
8b	Kum-
8a	-mer
=40	=40
4.g#	al-
8a	-tert'
8ee	ich
16dd	zu
16ccn	|
=41	=41
4ccn	Fru2-
8b}	-he;}
{8cc#	{macht
8dd	mich
8dd#	auf
=42	=42
4ee	e-
4.cc#	-wig,
8a	auf
=43	=43
4.a	e-
8a	-wig
8.cc#	wei-
16b	-der
=44	=44
4.a}	jung!}
8r	.
4r	.
==	==
*-	*-
